X:1
T:Subject & Dance with Goblets
T:Subject & Dance with Goblets
T:Swan Lake, Piano Arrangement for 3 hands
T:Hinci
C:Hinci
%%score { ( 1 4 ) | ( 2 6 ) | ( 3 5 ) }
L:1/8
Q:1/4=96
M:4/4
K:E
V:1 treble nm="Piano" snm="Pno."
V:4 treble 
V:2 bass 
V:6 bass 
V:3 treble 
V:5 treble 
V:1
!mp! E F2 E2 A,2 B, | C8 | C =D2 C2 F,2 G, | A,8 |!mp! F G2 A2 G2 F | (EFAc) ([GB]2 A2) | %6
 c d2 e2 d2 c | (Bceg) (!>!b4- | b^bc'g) (=bagf) | (edgf) (e/f/).e/.d/ .c.B | z8 | z8 | z8 | %13
 z2 .[Bb] z .[B,B] z z2 | z!p!!<(! [Begb][Bdfb][Begb] [Bdfb][Begb][Bdfb][Begb] | %15
 [Bdfb][Begb][Bdfb][Begb]!<)!!mf! !fermata![Bdfb]2 !fermata!z2 |: %16
[M:3/4]"^Tempo di polacca."!ff![Q:1/4=116]{/!fermata!b!fermata!c'!fermata!d'} !fermata![gbe']>e' e'd' (f'/e'/d'/e'/) | %17
 b>b b^a (c'/b/a/b/) | ^^fg fg (c'/b/a/g/ | [cf]/)(c/d/^e/ f/g/a/b/ c'/d'/^e'/f'/) | %20
 [c'e'g']>[c'e'g'] [c'e'g'][c'e'f'] [c'e'g'][c'e'f'] | g'd' f'/e'/d'/c'/ bc' | %22
 e'd' e'c' (d'/c'/b/c'/) | d'>c' [ab]2 z2 | %24
{/!fermata!b!fermata!c'!fermata!d'} !fermata![gbe']>e' e'd' (f'/e'/d'/e'/) | b>b b^a (c'/b/a/b/) | %26
 ^^fg fg (c'/b/a/g/ | [cf]/)(c/d/^e/ f/g/a/b/ c'/d'/^e'/f'/) | %28
 [c'e'g']>[c'e'g'] [c'e'g'][c'e'f'] [c'e'g'][c'e'f'] | g'd' f'/e'/d'/c'/ bc' | %30
 d'b (e'/d'/c'/b/) ^a2 | d'b (e'/d'/c'/b/) ^a2 | (d'/c'/b/c'/) (d'/c'/b/c'/) (d'/c'/b/c'/) | %33
 (d'/e'/f'/g'/) f'2 e'2 :|!f! f'>f' f'b (f'/e'/d'/e'/) | d'b (d'/c'/b/c'/) bg | %36
 (=d'/c'/b/d'/) (c'/b/a/b/) (c'/b/a/c'/) | (b/a/g/b/)!ff! (^a/f/b/!f!c'/) (d'/b/d'/e'/) | %38
 f'>f' f'b (f'/e'/d'/e'/) | d'b (d'/c'/b/c'/) bg | (=d'/c'/b/d'/) (c'/b/a/b/) (c'/b/a/c'/) | %41
 (b/a/g/b/)!ff! (^a/f/b/!f!c'/) (d'/b/d'/^e'/) | f' z!mf!{/=D} (=C/B,/C/^D/) (=D/^C/D/=F/) | %43
 z _b{/=d'} (=c'/=b/c'/^d'/) (=d'/^c'/d'/=f'/) | _b_B,!mf!{/=D} (=C/=B,/C/^D/) (=D/^C/D/=F/) | %45
 z _b{/=d'} (=c'/=b/c'/^d'/) (=d'/^c'/d'/=f'/) | d'>d' d'^e' (g'/f'/e'/f'/) | %47
 d'>d' d'^e' (g'/f'/e'/f'/) | [c_g]C{/^E} (D/C/D/F/) (E/=E/^E/G/) | %49
 z c'{/^e'} (d'/c'/d'/f'/) (e'/=e'/^e'/g'/ | c')C{/^E} (D/C/D/F/) (E/=E/^E/G/) | %51
 z c'!<(!{/^e'} (d'/c'/d'/f'/) (e'/=e'/^e'/g'/)!<)! |!f! f'>f' (f'g')"_cresc." f'>f' | %53
 (f'g') f'>f' (f'g') | (f'g') (f'g') (f'g') | (f'g') (f'g') (f'g') | %56
!ff!{/!fermata!b!fermata!c'!fermata!d'} !fermata![gbe']>e' e'd' (f'/e'/d'/e'/) | %57
 b>b b^a (c'/b/a/b/) | ^^fg fg (c'/b/a/g/ | [cf]/)(c/d/^e/ f/g/a/b/ c'/d'/^e'/f'/) | %60
 [c'e'g']>[c'e'g'] [c'e'g'][c'e'f'] [c'e'g'][c'e'f'] | g'd' f'/e'/d'/c'/ bc' | %62
 e'd' e'c' (d'/c'/b/c'/) | d'>c' [ab]2 z2 | %64
{/!fermata!b!fermata!c'!fermata!d'} !fermata![gbe']>e' e'd' (f'/e'/d'/e'/) | b>b b^a (c'/b/a/b/) | %66
 ^^fg fg (c'/b/a/g/ | [cf]/)(c/d/^e/ f/g/a/b/ c'/d'/^e'/f'/) | %68
 [c'e'g']>[c'e'g'] [c'e'g'][c'e'f'] [c'e'g'][c'e'f'] | g'd' f'/e'/d'/c'/ bc' | %70
 d'b (e'/d'/c'/b/) ^a2 | d'b (e'/d'/c'/b/) ^a2 | (d'/c'/b/c'/) (d'/c'/b/c'/) (d'/c'/b/c'/) | %73
 (d'/e'/f'/g'/) f'2 e'2 ||[K:C]!p! .[Ace].[Ace]/.[Ace]/ .[Ace].[Ace] .[FABd].[FABe] | %75
 .[EAc].[EAc]/.[EAc]/ .[EAc].[EAc] .[DAB].[EAc] | %76
 .[CEA].[CEA]/.[CEA]/ .[CEA].[CEA] .[DE^F].[DE^G] | %77
 .[CEA].[CEA]/.[CEA]/ .[CEA].[CEA] .[DE^F].[DE^G] | %78
 .[ec'e'].[ec'e']/.[ec'e']/ .[ec'e'].[ec'e'] .[dbd'].[ebe'] | %79
 .[cac'].[cac']/.[cac']/ .[cac'].[cac'] .[Bab].[cac'] | %80
 .[Acea].[Acea]/.[Acea]/ .[Acea].[Acea] .[^Fde^f].[^Gde^g] | %81
 .[Acea].[Acea]/.[Acea]/ .[Acea].[Acea] .[^Fde^f].[^Gde^g] | .[Aea]!8va(!.e' .a'.c'' .b'.e'' | %83
 .c''.e'' .c''.e'' .d''.g'' | .g'.c'' .a'.c'' .a'.c'' | .a'.c'' .a'.c'' .a'.c'' | %86
 .a'.e' .a'.c'' .b'.e'' | .c''.e'' .c''.e'' .d''.g'' | .g'.c'' .a'.c'' .a'.c'' | %89
 .a'.c'' .a'.c'' .a'.c'' | .a'!8va)! z z2 z2 | .[ceg].[ceg]/.[ceg]/ .[ceg].[ceg] .[cdf].[cdg] | %92
 .[ce].[ce]/.[ce]/ .[ce].[ce] .[cd].[ce] | .[Ec].[Ec]/.[Ec]/ .[Ec].[Ec] .[FA].[FB] | %94
 .[Ec].[Ec]/.[Ec]/ .[Ec].[Ec] .[FA].[FB] |!mp! .[ceg].[ceg]/.[ceg]/ .[ceg].[ceg] .[_Acdf].[Acdg] | %96
 .[Gce].[Gce]/.[Gce]/ .[Gce].[Gce] .[Fcd].[Gce] | .[EGc].[EGc]/.[EGc]/ .[EGc].[EGc] .[FGA].[FGB] | %98
 .[EGc].[EGc]/.[EGc]/ .[EGc].[EGc] .[FGA].[FGB] | .[EGc]!p!!8va(!.g' .c''.e'' .d''.g'' | %100
 .c''.e'' .c''.e'' .c''.e'' | .c''.e'' .c''.e'' .a'.b' | .c''.g' .c''.e'' .d''.g'' | %103
 .c''.e'' .c''.e'' .c''.e'' | .c''.e'' .c''.e'' .c''.e'' | %105
 .a'!8va)!.[Ace]/.[Ace]/ .[Ace].[Ace] .[FABd].[FABe] | %106
 .[EAc].[EAc]/.[EAc]/ .[EAc].[EAc] .[DAB].[EAc] | %107
 .[CEA].[CEA]/.[CEA]/ .[CEA].[CEA] .[DE^F].[DE^G] | %108
 .[CEA].[CEA]/.[CEA]/ .[CEA].[CEA] .[DE^F].[DE^G] | %109
 .[ec'e'].[ec'e']/.[ec'e']/ .[ec'e'].[ec'e'] .[dbd'].[ebe'] | %110
 .[cac'].[cac']/.[cac']/ .[cac'].[cac'] .[Bab].[cac'] | %111
 .[Acea].[Acea]/.[Acea]/ .[Acea].[Acea] .[^Fde^f].[^Gde^g] | %112
 .[Acea].[Acea]/.[Acea]/ .[Acea].[Acea] .[^Fde^f].[^Gde^g] | .[Aea]!8va(!.e' .a'.c'' .b'.e'' | %114
 .c''.e'' .c''.e'' .d''.g'' | .g'.c'' .a'.c'' .a'.c'' | .a'.c'' .a'.c'' .a'.c'' | %117
 .a'.e' .a'.c'' .b'.e'' | .c''.e'' .c''.e'' .d''.g'' | .g'.c'' .a'.c'' .a'.c'' | %120
 .a'.c'' .a'.c'' .a'.c'' | .a'!8va)! z z2 z2 | %122
!f! [A,CE].[A,CE]/.[A,CE]/ .[A,CE].[A,CE] [G,^C][G,C^D] | .e.e/.e/ .e.e .^c.^d | %124
 .[eb].b/.b/ .b.^c' (e'/^d'/c'/d'/ | e') z z2 z2 | [E^GB].[EGB]/.[EGB]/ .[EGB].[EGB] [DG][DG^A] | %127
 .b.b/.b/ .b.b .^g.^a | .[^d^fb].f/.f/ .f.^g (b/^a/g/a/ | %129
!ff! [^FB^d^fb])[FBdf]/[FBdf]/ [FBdf][FBdf] [EBe][^GBe^g] | [^FB^d^f] z z2 z2 | %131
!ff! [^FB^d^f][FBdf]/[FBdf]/ [FBdf][FBdf] [EBe][^GBe^g] | [^FB^d^f] z z2 z2 | %133
!ff! [^FB^d^f][FBdf]/[FBdf]/ [FBdf] ([db^d']/[e^c'e']/ [fd'^f'])([dbd']/[ec'e']/ | %134
 [^f^d'^f'])([^dbd']/[e^c'e']/ [fd'f'])([dbd']/[ec'e']/ [fd'f'])([dbd']/[ec'e']/ | %135
 [^f^d'^f'])([^dbd']/[e^c'e']/ [fd'f'])([dbd']/[ec'e']/ [fd'f'])[B,B]/[^C^c]/ | %136
 [^D^d]/[^C^c]/[Dd]/[Ee]/ [^F^f]/[^G^g]/[Aa]/[^A^a]/ [Bb]/[=cc']/[^c^c']/[d^d']/ || %137
[K:E]!ff!{/!fermata!b!fermata!c'!fermata!d'} !fermata![gbe']>e' e'd' (f'/e'/d'/e'/) | %138
 b>b b^a (c'/b/a/b/) | ^^fg fg (c'/b/a/g/ | [cf]/)(c/d/^e/ f/g/a/b/ c'/d'/^e'/f'/) | %141
 [c'e'g']>[c'e'g'] [c'e'g'][c'e'f'] [c'e'g'][c'e'f'] | g'd' f'/e'/d'/c'/ bc' | %143
 e'd' e'c' (d'/c'/b/c'/) | d'>c' [ab]2 z2 | %145
{/!fermata!b!fermata!c'!fermata!d'} !fermata![gbe']>e' e'd' (f'/e'/d'/e'/) | b>b b^a (c'/b/a/b/) | %147
 ^^fg fg (c'/b/a/g/ | [cf]/)(c/d/^e/ f/g/a/b/ c'/d'/^e'/f'/) | %149
 [c'e'g']>[c'e'g'] [c'e'g'][c'e'f'] [c'e'g'][c'e'f'] | g'd' f'/e'/d'/c'/ bc' | %151
 d'b (e'/d'/c'/b/) ^a2 | d'b (e'/d'/c'/b/) ^a2 | (d'/c'/b/c'/) (d'/c'/b/c'/) (d'/c'/b/c'/) | %154
 (d'/e'/f'/g'/) f'2 e'2 |!f! f'>f' f'b (f'/e'/d'/e'/) | d'b (d'/c'/b/c'/) bg | %157
 (=d'/c'/b/d'/) (c'/b/a/b/) (c'/b/a/c'/) | (b/a/g/b/)!ff! (^a/f/b/!f!c'/) (d'/b/d'/e'/) | %159
 f'>f' f'b (f'/e'/d'/e'/) | d'b (d'/c'/b/c'/) bg | (=d'/c'/b/d'/) (c'/b/a/b/) (c'/b/a/c'/) | %162
 (b/a/g/b/)!ff! (^a/f/b/!f!c'/) (d'/b/d'/^e'/) | f' z!mf!{/=D} (=C/B,/C/^D/) (=D/^C/D/=F/) | %164
 z _b{/=d'} (=c'/=b/c'/^d'/) (=d'/^c'/d'/=f'/) | _b_B,!mf!{/=D} (=C/=B,/C/^D/) (=D/^C/D/=F/) | %166
 z _b{/=d'} (=c'/=b/c'/^d'/) (=d'/^c'/d'/=f'/) | d'>d' d'^e' (g'/f'/e'/f'/) | %168
 d'>d' d'^e' (g'/f'/e'/f'/) | [c_g]C{/^E} (D/C/D/F/) (E/=E/^E/G/) | %170
 z c'{/^e'} (d'/c'/d'/f'/) (e'/=e'/^e'/g'/ | c')C{/^E} (D/C/D/F/) (E/=E/^E/G/) | %172
 z c'!<(!{/^e'} (d'/c'/d'/f'/) (e'/=e'/^e'/g'/)!<)! |!f! f'>f' (f'g')"_cresc." f'>f' | %174
 (f'g') f'>f' (f'g') | (f'g') (f'g') (f'g') | (f'g') (f'g') (f'g') | %177
!ff!{/!fermata!b!fermata!c'!fermata!d'} !fermata![gbe']>e' e'd' (f'/e'/d'/e'/) | %178
 b>b b^a (c'/b/a/b/) | ^^fg fg (c'/b/a/g/ | [cf]/)(c/d/^e/ f/g/a/b/ c'/d'/^e'/f'/) | %181
 [c'e'g']>[c'e'g'] [c'e'g'][c'e'f'] [c'e'g'][c'e'f'] | g'd' f'/e'/d'/c'/ bc' | %183
 e'd' e'c' (d'/c'/b/c'/) | d'>c' [ab]2 z2 | %185
{/!fermata!b!fermata!c'!fermata!d'} !fermata![gbe']>e' e'd' (f'/e'/d'/e'/) | b>b b^a (c'/b/a/b/) | %187
 ^^fg fg (c'/b/a/g/ | [cf]/)(c/d/^e/ f/g/a/b/ c'/d'/^e'/f'/) | %189
 [c'e'g']>[c'e'g'] [c'e'g'][c'e'f'] [c'e'g'][c'e'f'] | [be'g']b e'/d'/e'/f'/ [d'g']f' | %191
 [gc'e']g c'/^b/c'/d'/ [fbe']d' | [ec']e a/g/a/b/ [cgc']b | %193
 [cfa]c' [ff']/[^e^e']/[ff']/[gg']/ [aa'][gg'] | [ff']G/g/ A/a/B/b/ c/c'/d/d'/ | %195
 c/c'/d/d'/ f/f'/e/e'/ d/d'/c/c'/ | (B/b/c'/d'/) (e'/d'/c'/b/) (^a/b/c'/d'/) | %197
 (e'/d'/c'/b/) (^a/b/c'/d'/) (e'/d'/c'/b/) | ([cc'][gg']) ([cc'][gg']) ([cc'][gg']) | %199
 ([cc'][gg']) ([cc'][gg']) ([cc'][gg']) | [egbe']b e'/d'/e'/f'/ [d'g']f' | %201
 [gc'e']g c'/^b/c'/d'/ [fbe']d' | [ec']e a/g/a/b/ [cgc']b | %203
 [cfa]c' [ff']/[^e^e']/[ff']/[gg']/ [aa'][gg'] | [ff']G/g/ A/a/B/b/ c/c'/d/d'/ | %205
 c/c'/d/d'/ f/f'/e/e'/ d/d'/c/c'/ | (B/b/c'/d'/) (e'/d'/c'/b/) (^a/b/c'/d'/) | %207
 (e'/d'/c'/b/) (^a/b/c'/d'/) (e'/d'/c'/b/) | ([cc'][gg']) ([cc'][gg']) ([cc'][gg']) | %209
 ([cc'][gg']) ([cc'][gg']) ([dd'][ff']) | [ee']>[ee'] [ee'][dd'] [ff']/[ee']/[dd']/[ee']/ | %211
 [Bb]>[Bb] [Bb][^A^a] [cc']/[Bb]/[Aa]/[Bb]/ | [Gg]>[Gg] a/g/f/g/ a/g/f/g/ | %213
 a/g/f/g/ a/g/f/g/ a/b/c'/d'/ | (!/-![ee']3 [gg']3) | (!/-![ee']3 [gg']3) | %216
"^rall."[Q:1/4=106] [gbe']2[Q:1/4=96] [gbe']2[Q:1/4=86] [gbe']2 | [E,G,B,E]6 |] %218
V:2
 z8 | z!p! .B,,.A,,.^E,, .F,,.G,, .A,,2 | z8 | z .=G,.F,.C, .=D,.E, .F,2 | z4!mp! [D,A,]4- | %5
 [D,A,]2 z2 [E,=D]2 [A,C]2 | z4 [^A,C]4- | [A,C]2 z2 z4 | [B,,B,]2 z2 [B,,C]2 z2 | z8 | %10
[K:treble] (A/B/).A/.G/ .F.E[K:bass]!mp! (D/E/).D/.C/ .B,.^A, | %11
!p! (A,/B,/).A,/.G,/ .F,.E,!mp! (D,/E,/).D,/.C,/ .B,,.^A,, | .A,, z .G,, z .F,,.E,,.D,,.C,, | %13
 .B,,, z .B, z .B,, z z2 | z [B,E]B,[B,E] B,[B,E]B,[B,E] | %15
 B,[B,E]B,[B,E] !fermata!B,2 !fermata!z2 |:[M:3/4]!f! [E,,E,]3 [B,,,B,,] [E,,E,][B,,,B,,] | %17
 [E,,E,]2- [E,,E,][B,,,B,,] [E,,E,][B,,,B,,] | [E,,E,][B,,,B,,] [E,,E,][=D,,=D,] [C,,C,]2 | %19
 [F,,F,] z4 z | [A,,,A,,]4 [^A,,,^A,,]2 | %21
 !arpeggio![B,,,E,,G,,B,,]!mf![B,,E,G,]/[B,,E,G,]/ .[B,,E,G,].[B,,E,G,] [B,,E,]2 | %22
!f! !arpeggio![B,,,E,,G,,B,,]!mf![A,,B,,F,]/[A,,B,,F,]/ .[A,,B,,F,].[A,,B,,F,] [A,,B,,F,]2 | %23
!f! [E,,E,][B,,,B,,] [^E,,^E,][F,,F,] =E,,/D,,/C,,/B,,,/ |!f! [E,,E,]3 [B,,,B,,] [E,,E,][B,,,B,,] | %25
 [E,,E,]2- [E,,E,][B,,,B,,] [E,,E,][B,,,B,,] | [E,,E,][B,,,B,,] [E,,E,][=D,,=D,] [C,,C,]2 | %27
 [F,,F,] z4 z | [A,,,A,,]4 [^A,,,^A,,]2 | %29
 !arpeggio![B,,,E,,G,,B,,]!mf![B,,E,G,]/[B,,E,G,]/ .[B,,E,G,].[B,,E,G,] [B,,E,]2 | %30
!f! [D,,G,,B,,D,] z z G,, [D,,C,D,]D, |!f! [D,,B,,D,] z z G,, [D,,C,D,]D, | %32
 [D,,D,]2 [E,,E,]2 [^E,,^E,]2 | [F,,F,][B,,,B,,] [C,,C,][D,,D,] [E,,E,]2 :| %34
 [B,,,B,,]2 z2 [A,,A,]2 | [G,,G,]2 [^^F,,^^F,]2 [G,,G,]2 | [^E,,^E,]2 [F,,F,]2 [D,,D,]2 | %37
 [E,,E,]2 [C,,C,][B,,,B,,] z2 | [B,,,B,,]2 z2 [A,,A,]2 | [G,,G,]2 [^^F,,^^F,]2 [G,,G,]2 | %40
 [^E,,^E,]2 [F,,F,]2 [D,,D,]2 | [E,,E,]2 [C,,C,][B,,,B,,] z2 | %42
 [_B,,_B,]!mp![_B,,,B,,] [A,,A,][B,,,B,,] [_A,,_A,][B,,,B,,] | %43
 [=G,,=G,][_B,,,_B,,] [_G,,_G,][B,,,B,,] [=F,,=F,][B,,,B,,] | %44
 [_E,,_E,][_B,,,_B,,] [A,,A,][B,,,B,,] [_A,,_A,][B,,,B,,] | %45
 [=G,,=G,][_B,,,_B,,] [_G,,_G,][B,,,B,,] [=F,,=F,][B,,,B,,] | %46
!f! [B,,,D,,B,,] z z [B,,,D,,B,,][B,,,D,,B,,][B,,,D,,B,,] | %47
!f! [^B,,,D,,^B,,] z z [B,,,D,,B,,][B,,,D,,B,,][B,,,D,,B,,] | %48
 [C,,C,]!mp![C,,C,] [^B,,^B,][C,,C,] [=B,,=B,][C,,C,] | %49
 [^A,,^A,][C,,C,] [=A,,=A,][C,,C,] [G,,G,][C,,C,] | %50
 [F,,C,F,][C,,C,] [^B,,^B,][C,,C,] [=B,,=B,][C,,C,] | %51
 [^A,,^A,][C,,C,] [=A,,=A,][C,,C,] [G,,G,][C,,C,] | [F,,^A,,E,]4 [G,,B,,E,]2- | %53
 [G,,B,,E,]2 [A,,=C,E,]4 | [^A,,C,E,]2 [B,,=D,F,]2 [^B,,^D,G,]2 | %55
 [C,E,A,]2 [=C,E,^A,]2 [B,,D,B,]2 |!f! [E,,E,]3 [B,,,B,,] [E,,E,][B,,,B,,] | %57
 [E,,E,]2- [E,,E,][B,,,B,,] [E,,E,][B,,,B,,] | [E,,E,][B,,,B,,] [E,,E,][=D,,=D,] [C,,C,]2 | %59
 [F,,F,] z4 z | [A,,,A,,]4 [^A,,,^A,,]2 | %61
 !arpeggio![B,,,E,,G,,B,,]!mf![B,,E,G,]/[B,,E,G,]/ .[B,,E,G,].[B,,E,G,] [B,,E,]2 | %62
!f! !arpeggio![B,,,E,,G,,B,,]!mf![A,,B,,F,]/[A,,B,,F,]/ .[A,,B,,F,].[A,,B,,F,] [A,,B,,F,]2 | %63
!f! [E,,E,][B,,,B,,] [^E,,^E,][F,,F,] =E,,/D,,/C,,/B,,,/ |!f! [E,,E,]3 [B,,,B,,] [E,,E,][B,,,B,,] | %65
 [E,,E,]2- [E,,E,][B,,,B,,] [E,,E,][B,,,B,,] | [E,,E,][B,,,B,,] [E,,E,][=D,,=D,] [C,,C,]2 | %67
 [F,,F,] z4 z | [A,,,A,,]4 [^A,,,^A,,]2 | %69
 !arpeggio![B,,,E,,G,,B,,]!mf![B,,E,G,]/[B,,E,G,]/ .[B,,E,G,].[B,,E,G,] [B,,E,]2 | %70
!f! [D,,G,,B,,D,] z z G,, [D,,C,D,]D, |!f! [D,,B,,D,] z z G,, [D,,C,D,]D, | %72
 [D,,D,]2 [E,,E,]2 [^E,,^E,]2 | [F,,F,][B,,,B,,] [C,,C,][D,,D,] [E,,E,]2 || %74
[K:C] .A,,.E, z .E, .A,,.E, | .A,,.E, z .E, .A,,.E, | .A,,.E, z .E, .A,,.E, | %77
 .A,,.E, z .E, .A,,.E, | .A,,.E, z .E, .A,,.E, | .A,,.E, z .E, .A,,.E, | .A,,.E, z .E, .A,,.E, | %81
 .A,,.E, z .E, .A,,.E, |[K:treble]!8vb(! .A,,!8vb)!.[CEA] .A,.[CEA] .^G,.[B,EB] | %83
 .G,.[CEA] .^F,.[CEA] .=F,.[DGB] | .E,.[CGA] ._E,.[C^FA] .D,.[D=FA] | %85
 .[EA].[DFA] .[CEA].[A,CE] .[DE^F].[DE^G] | .[CEA].[CEA] .A,.[CEA] .^G,.[Ee] | %87
 .G,.[CEA] .^F,.[CEA] .=F,.[DGB] | .E,.[CGA] ._E,.[C^FA] .D,.[D=FA] | %89
 .[EA].[DFA] .[CEA].[A,CE] .[DE^F].[DE^G] | .[CEA] .[CEA].A.[CEAc] (g/f/e/d/) | %91
[K:bass] .C,.G, z .G, .C,.G, | .C,.G, z .G, .C,.G, | .C,.G, z .G, .C,.G, | .C,.G, z .G, .C,.G, | %95
 .C,.G, z .G, .C,.G, | .C,.G, z .G, .C,.G, | .C,.G, z .G, .C,.G, | .C,.G, z .G, .C,.G, | %99
[K:treble]!8vb(! .C,!8vb)!.[EGc] .C.[EGc] .B,.[DGd] | ._B,.[CEc] .A,.[CEc] ._A,.[CEc] | %101
 .G,.[CEc] .^F,.[CEA] .=F,.[DGB] | .[CGc].[B,FG]!8vb(! .C,.[CEG] .B,,.[DGd] | %103
 ._B,,.[CEc] .A,,.[CEc] ._A,,.[CEc] | .G,,.[CEc] .^F,,!8vb)! .[CEA].[DE^F].[DE^G] | %105
[K:bass] .A,,.E, z .E, .A,,.E, | .A,,.E, z .E, .A,,.E, | .A,,.E, z .E, .A,,.E, | %108
 .A,,.E, z .E, .A,,.E, | .A,,.E, z .E, .A,,.E, | .A,,.E, z .E, .A,,.E, | .A,,.E, z .E, .A,,.E, | %112
 .A,,.E, z .E, .A,,.E, |[K:treble]!8vb(! .A,,!8vb)!.[CEA] .A,.[CEA] .^G,.[B,EB] | %114
 .G,.[CEA] .^F,.[CEA] .=F,.[DGB] | .E,.[CGA] ._E,.[C^FA] .D,.[D=FA] | %116
 .[EA].[DFA] .[CEA].[A,CE] .[DE^F].[DE^G] | .[CEA].[CEA] .A,.[CEA] .^G,.[Ee] | %118
 .G,.[CEA] .^F,.[CEA] .=F,.[DGB] | .E,.[CGA] ._E,.[C^FA] .D,.[D=FA] | %120
 .[EA].[DFA] .[CEA].[A,CE] .[DE^F].[DE^G] |[K:bass]!f! A,,.A,,/.A,,/ .A,,.A,, ^F,,^G,, | %122
 A,,4 ^A,,2 |[K:treble]!mf! [^G,B,E]4 [A,B,^F]2 | [B,^G]2 [^G,B,E]2 [A,B,^F]2 | %125
[K:bass]!f! [E,^G,B,].E,/.E,/ .E,.E, ^C,^D, | E,4 F,2 |!mf! [^D^F]4 [EF]2 | ^F2 [^DF]2 [EF]2 | %129
 [B,,B,][B,,B,]/[B,,B,]/ [B,,B,][B,,B,] [B,,^G,][B,,E,] | %130
 [B,,B,]!f![B,,B,]/[B,,B,]/ [B,,B,][B,,B,] [^G,,^G,][^A,,^A,] | %131
 [B,,B,][B,,B,]/[B,,B,]/ [B,,B,][B,,B,] [B,,^G,][B,,E,] | %132
 [B,,B,]!f![B,,B,]/[B,,B,]/ [B,,B,][B,,B,] [^G,,^G,][^A,,^A,] | %133
 [B,,B,][B,,B,]/[B,,B,]/ [B,,B,] z [B,,B,] z | [B,,B,] z [B,,B,] z [B,,B,] z | %135
 [B,,B,] z [B,,B,] z [B,,B,]B,,/^C,/ | ^D,/^C,/D,/E,/ ^F,/^G,/A,/^A,/ B,/C/^C/^D/ || %137
[K:E]!f! [E,,E,]3 [B,,,B,,] [E,,E,][B,,,B,,] | [E,,E,]2- [E,,E,][B,,,B,,] [E,,E,][B,,,B,,] | %139
 [E,,E,][B,,,B,,] [E,,E,][=D,,=D,] [C,,C,]2 | [F,,F,] z4 z | [A,,,A,,]4 [^A,,,^A,,]2 | %142
 !arpeggio![B,,,E,,G,,B,,]!mf![B,,E,G,]/[B,,E,G,]/ .[B,,E,G,].[B,,E,G,] [B,,E,]2 | %143
!f! !arpeggio![B,,,E,,G,,B,,]!mf![A,,B,,F,]/[A,,B,,F,]/ .[A,,B,,F,].[A,,B,,F,] [A,,B,,F,]2 | %144
!f! [E,,E,][B,,,B,,] [^E,,^E,][F,,F,] =E,,/D,,/C,,/B,,,/ |!f! [E,,E,]3 [B,,,B,,] [E,,E,][B,,,B,,] | %146
 [E,,E,]2- [E,,E,][B,,,B,,] [E,,E,][B,,,B,,] | [E,,E,][B,,,B,,] [E,,E,][=D,,=D,] [C,,C,]2 | %148
 [F,,F,] z4 z | [A,,,A,,]4 [^A,,,^A,,]2 | %150
 !arpeggio![B,,,E,,G,,B,,]!mf![B,,E,G,]/[B,,E,G,]/ .[B,,E,G,].[B,,E,G,] [B,,E,]2 | %151
!f! [D,,G,,B,,D,] z z G,, [D,,C,D,]D, |!f! [D,,B,,D,] z z G,, [D,,C,D,]D, | %153
 [D,,D,]2 [E,,E,]2 [^E,,^E,]2 | [F,,F,][B,,,B,,] [C,,C,][D,,D,] [E,,E,]2 | [B,,,B,,]2 z2 [A,,A,]2 | %156
 [G,,G,]2 [^^F,,^^F,]2 [G,,G,]2 | [^E,,^E,]2 [F,,F,]2 [D,,D,]2 | [E,,E,]2 [C,,C,][B,,,B,,] z2 | %159
 [B,,,B,,]2 z2 [A,,A,]2 | [G,,G,]2 [^^F,,^^F,]2 [G,,G,]2 | [^E,,^E,]2 [F,,F,]2 [D,,D,]2 | %162
 [E,,E,]2 [C,,C,][B,,,B,,] z2 | [_B,,_B,]!mp![_B,,,B,,] [A,,A,][B,,,B,,] [_A,,_A,][B,,,B,,] | %164
 [=G,,=G,][_B,,,_B,,] [_G,,_G,][B,,,B,,] [=F,,=F,][B,,,B,,] | %165
 [_E,,_E,][_B,,,_B,,] [A,,A,][B,,,B,,] [_A,,_A,][B,,,B,,] | %166
 [=G,,=G,][_B,,,_B,,] [_G,,_G,][B,,,B,,] [=F,,=F,][B,,,B,,] | %167
!f! [B,,,D,,B,,] z z [B,,,D,,B,,][B,,,D,,B,,][B,,,D,,B,,] | %168
!f! [^B,,,D,,^B,,] z z [B,,,D,,B,,][B,,,D,,B,,][B,,,D,,B,,] | %169
 [C,,C,]!mp![C,,C,] [^B,,^B,][C,,C,] [=B,,=B,][C,,C,] | %170
 [^A,,^A,][C,,C,] [=A,,=A,][C,,C,] [G,,G,][C,,C,] | %171
 [F,,C,F,][C,,C,] [^B,,^B,][C,,C,] [=B,,=B,][C,,C,] | %172
 [^A,,^A,][C,,C,] [=A,,=A,][C,,C,] [G,,G,][C,,C,] | [F,,^A,,E,]4 [G,,B,,E,]2- | %174
 [G,,B,,E,]2 [A,,=C,E,]4 | [^A,,C,E,]2 [B,,=D,F,]2 [^B,,^D,G,]2 | %176
 [C,E,A,]2 [=C,E,^A,]2 [B,,D,B,]2 |!f! [E,,E,]3 [B,,,B,,] [E,,E,][B,,,B,,] | %178
 [E,,E,]2- [E,,E,][B,,,B,,] [E,,E,][B,,,B,,] | [E,,E,][B,,,B,,] [E,,E,][=D,,=D,] [C,,C,]2 | %180
 [F,,F,] z4 z | [A,,,A,,]4 [^A,,,^A,,]2 | %182
 !arpeggio![B,,,E,,G,,B,,]!mf![B,,E,G,]/[B,,E,G,]/ .[B,,E,G,].[B,,E,G,] [B,,E,]2 | %183
!ff! !arpeggio![B,,,E,,G,,B,,]!mf![A,,B,,F,]/[A,,B,,F,]/ .[A,,B,,F,].[A,,B,,F,] [A,,B,,F,]2 | %184
!ff! [E,,E,][B,,,B,,] [^E,,^E,][F,,F,] =E,,/D,,/C,,/B,,,/ | [E,,E,]3 [B,,,B,,] [E,,E,][B,,,B,,] | %186
 [E,,E,]2- [E,,E,][B,,,B,,] [E,,E,][B,,,B,,] | [E,,E,][B,,,B,,] [E,,E,][=D,,=D,] [C,,C,]2 | %188
 [F,,F,] z4 z | [A,,,A,,]4 [^A,,,^A,,]2 | !arpeggio![B,,,E,,G,,B,,] z z2 [^B,,,^B,,]2 | %191
 [C,,C,] z z2 [G,,G,]2 | [A,,A,] z z2 [^E,,^E,]2 | [F,,F,] z z2 [B,,^E,B,]2 | [A,,F,A,] z z2 z2 | %195
 [A,,A,]2 [A,,A,]2 [^A,,^A,]2 | [B,,B,] z[K:treble] [EG]2 [B,F]2 | [G,E]2 [B,F]2 [EG]2 | %198
[K:bass] [B,,,B,,]2 [B,,,B,,]2 [B,,,B,,]2 | [B,,,B,,]4 [B,,,B,,]2 | [E,,E,] z z2 [^B,,,^B,,]2 | %201
 [C,,C,] z z2 [G,,G,]2 | [A,,A,] z z2 [^E,,^E,]2 | [F,,F,] z z2 [B,,^E,B,]2 | [A,,F,A,] z z2 z2 | %205
 [A,,A,]2 [A,,A,]2 [^A,,^A,]2 | [B,,B,] z[K:treble]!<(! [EG]2 [B,F]2 | [G,E]2 [B,F]2 [EG]2!<)! | %208
[K:bass] [B,,,B,,]2 [B,,,B,,]2 [B,,,B,,]2 | [B,,,B,,]4 [B,,,B,,]2 | !/-![E,,E,]3 [B,,,B,,]3 | %211
 !/-![E,,E,]3 [B,,,B,,]3 | !/-![E,,E,]3 [B,,,B,,]3 | !/-![E,,E,]3 [B,,,B,,]3 | %214
 [E,,E,]2 [C,,C,]2 [E,,E,]2 | [C,,C,]2 [E,,E,]2 [C,,C,]2 | [E,,E,]2 [E,,E,]2 [E,,E,]2 | %217
 !///-!E,,3 E,3 |] %218
V:3
 z8 | z!pp! .[C^E].[CF].[CG] .[FA].[EG] .F2 | z8 | z .[A,C].[A,=D].[CE] .[DF].[CE] .D2 | %4
 z4!mp! [^B,F]4- | [B,F]2 z2 E4 | z4 [E^^F]4- | [EF]2 z2 z4 | [^EG]2 z2 [FA]2 z2 | z8 | z8 | z8 | %12
 z8 | z8 | z8 | z8 |:[M:3/4]{/Bcd} [Ee]>[Ee] [Ee][Dd] ([Ff]/[Ee]/[Dd]/[Ee]/) | %17
 [B,B]>[B,B] [B,B][^A,^A] [Cc]/[B,B]/[A,A]/[B,B]/ | %18
 [^^F,^^F][G,G] [F,F][G,G] ([Cc]/[B,B]/[A,A]/[G,G]/ | [F,F]/)C/D/^E/ F/G/A/B/ c/d/^e/f/ | %20
 [Gg]>[Gg] [Gg][Ff] [Gg][Ff] | [Gg][Dd] [Ff]/[Ee]/[Dd]/[Cc]/ [B,B][Cc] | %22
 [Ee][Dd] [Ee][Cc] ([Dd]/[Cc]/[B,B]/[Cc]/) | [Dd]>[Cc] [B,AB]2 z2 | %24
{/Bcd} [Ee]>[Ee] [Ee][Dd] ([Ff]/[Ee]/[Dd]/[Ee]/) | %25
 [B,B]>[B,B] [B,B][^A,^A] [Cc]/[B,B]/[A,A]/[B,B]/ | %26
 [^^F,^^F][G,G] [F,F][G,G] ([Cc]/[B,B]/[A,A]/[G,G]/ | [F,F]/)C/D/^E/ F/G/A/B/ c/d/^e/f/ | %28
 [Gg]>[Gg] [Gg][Ff] [Gg][Ff] | [Gg][Dd] [Ff]/[Ee]/[Dd]/[Cc]/ [B,B][Cc] | %30
 [Dd][B,B] ([Ee]/[Dd]/[Cc]/[B,B]/) [^A,D=G^A]2 | [Dd][B,B] ([Ee]/[Dd]/[Cc]/[B,B]/) [^A,D=G^A]2 | %32
 (d/c/B/c/) (d/c/B/c/) (d/c/B/c/) | (d/e/f/g/) [ABf]2 [GBe]2 :| [Ff]>[Ff] [Ff]B (f/e/d/e/) | %35
 dB (d/c/B/c/) BG | (=d/c/B/d/) (c/B/A/B/) (c/B/A/c/) | (B/A/G/B/) (^A/F/B/c/) (d/B/d/e/) | %38
 [Ff]>[Ff] [Ff]B (f/e/d/e/) | dB (d/c/B/c/) BG | (=d/c/B/d/) (c/B/A/B/) (c/B/A/c/) | %41
 (B/A/G/B/) (^A/F/B/c/) (d/B/d/^e/) | f z z2 z2 |!mf! D2 ([_B,_B]2 [G,G]2) | [=G,=G] z z2 z2 | %45
 D2 ([_B,_B]2 [G,G]2) | d>d d^e (g/f/e/f/) | d>d d^e (g/f/e/f/) | z6 | F2 ([Cc]2 [B,B]2) | %50
 [A,A] z z2 z2 | F2 ([Cc]2 [B,B]2) | [Ff]>[Ff] ([Ff][Gg]) [Ff]>[Ff] | %53
 ([Ff][Gg]) [Ff]>[Ff] ([Ff][Gg]) | ([Ff][Gg]) ([Ff][Gg]) ([Ff][Gg]) | %55
 ([Ff][Gg]) ([Ff][Gg]) ([Ff][Gg]) |{/Bcd} [Ee]>[Ee] [Ee][Dd] ([Ff]/[Ee]/[Dd]/[Ee]/) | %57
 [B,B]>[B,B] [B,B][^A,^A] [Cc]/[B,B]/[A,A]/[B,B]/ | %58
 [^^F,^^F][G,G] [F,F][G,G] ([Cc]/[B,B]/[A,A]/[G,G]/ | [F,F]/)C/D/^E/ F/G/A/B/ c/d/^e/f/ | %60
 [Gg]>[Gg] [Gg][Ff] [Gg][Ff] | [Gg][Dd] [Ff]/[Ee]/[Dd]/[Cc]/ [B,B][Cc] | %62
 [Ee][Dd] [Ee][Cc] ([Dd]/[Cc]/[B,B]/[Cc]/) | [Dd]>[Cc] [B,AB]2 z2 | %64
{/Bcd} [Ee]>[Ee] [Ee][Dd] ([Ff]/[Ee]/[Dd]/[Ee]/) | %65
 [B,B]>[B,B] [B,B][^A,^A] [Cc]/[B,B]/[A,A]/[B,B]/ | %66
 [^^F,^^F][G,G] [F,F][G,G] ([Cc]/[B,B]/[A,A]/[G,G]/ | [F,F]/)C/D/^E/ F/G/A/B/ c/d/^e/f/ | %68
 [Gg]>[Gg] [Gg][Ff] [Gg][Ff] | [Gg][Dd] [Ff]/[Ee]/[Dd]/[Cc]/ [B,B][Cc] | %70
 [Dd][B,B] ([Ee]/[Dd]/[Cc]/[B,B]/) [^A,D=G^A]2 | [Dd][B,B] ([Ee]/[Dd]/[Cc]/[B,B]/) [^A,D=G^A]2 | %72
 (d/c/B/c/) (d/c/B/c/) (d/c/B/c/) | (d/e/f/g/) [ABf]2 [GBe]2 ||[K:C] z6 | z6 | z6 | z6 | %78
 .[CEA] z z2 z2 | z6 | z6 | z6 | z6 | z6 | z6 |[K:bass] .C,.D, .E,.E, .E,.E, | %86
 .A,, z/[K:treble] (E/ ^F/^G/A/c/) (e/d/c/B/) | (A/B/c/d/) (e/d/c/A/) (B/A/G/B/) | %88
 (c/B/A/G/) (^F/G/A/B/) (c/B/A/^G/) | (A/G/F/f/) (e/d/c/B/) (c/d/e/d/ | c) z .^F, z .G,.[B,FG] | %91
 z6 | z6 | z6 | z6 | .[CEc] z z2 z2 | z6 | z6 | z6 | z6 | z6 | z6 | %102
!8vb(! .E,.D,/!8vb)! (.g/ a/b/c'/e'/) (g'/f'/e'/d'/) | (c'/b/a/g/) (^f/g/a/b/) (c'/b/c'/d'/) | %104
 (e'/d'/c'/b/) (a/b/c'/d'/) (e'/d'/c'/b/ | [Aa]) z z2 z2 | z6 | z6 | z6 | .[CEA] z z2 z2 | z6 | %111
 z6 | z6 | z6 | z6 | z6 |[K:bass] .C,.D, .E,.E, .E,.E, | %117
 .A,, z/[K:treble] (E/ ^F/^G/A/c/) (e/d/c/B/) | (A/B/c/d/) (e/d/c/A/) (B/A/G/B/) | %119
 (c/B/A/G/) (^F/G/A/B/) (c/B/A/^G/) | (A/G/F/f/) (e/d/c/B/) (c/d/e/d/ | [CEAc]) z z2 z2 | z6 | z6 | %124
 z6 | z6 | z6 | z6 | z6 | z6 | z6 | z6 | z6 | z4 [^FB^d] z | [^FB^d] z [FBd] z [FBd] z | %135
 [^FB^d] z [FBd] z [FBd] z | z6 ||[K:E]{/Bcd} [Ee]>[Ee] [Ee][Dd] ([Ff]/[Ee]/[Dd]/[Ee]/) | %138
 [B,B]>[B,B] [B,B][^A,^A] [Cc]/[B,B]/[A,A]/[B,B]/ | %139
 [^^F,^^F][G,G] [F,F][G,G] ([Cc]/[B,B]/[A,A]/[G,G]/ | [F,F]/)C/D/^E/ F/G/A/B/ c/d/^e/f/ | %141
 [Gg]>[Gg] [Gg][Ff] [Gg][Ff] | [Gg][Dd] [Ff]/[Ee]/[Dd]/[Cc]/ [B,B][Cc] | %143
 [Ee][Dd] [Ee][Cc] ([Dd]/[Cc]/[B,B]/[Cc]/) | [Dd]>[Cc] [B,AB]2 z2 | %145
{/Bcd} [Ee]>[Ee] [Ee][Dd] ([Ff]/[Ee]/[Dd]/[Ee]/) | %146
 [B,B]>[B,B] [B,B][^A,^A] [Cc]/[B,B]/[A,A]/[B,B]/ | %147
 [^^F,^^F][G,G] [F,F][G,G] ([Cc]/[B,B]/[A,A]/[G,G]/ | [F,F]/)C/D/^E/ F/G/A/B/ c/d/^e/f/ | %149
 [Gg]>[Gg] [Gg][Ff] [Gg][Ff] | [Gg][Dd] [Ff]/[Ee]/[Dd]/[Cc]/ [B,B][Cc] | %151
 [Dd][B,B] ([Ee]/[Dd]/[Cc]/[B,B]/) [^A,D=G^A]2 | [Dd][B,B] ([Ee]/[Dd]/[Cc]/[B,B]/) [^A,D=G^A]2 | %153
 (d/c/B/c/) (d/c/B/c/) (d/c/B/c/) | (d/e/f/g/) [ABf]2 [GBe]2 | [Ff]>[Ff] [Ff]B (f/e/d/e/) | %156
 dB (d/c/B/c/) BG | (=d/c/B/d/) (c/B/A/B/) (c/B/A/c/) | (B/A/G/B/) (^A/F/B/c/) (d/B/d/e/) | %159
 [Ff]>[Ff] [Ff]B (f/e/d/e/) | dB (d/c/B/c/) BG | (=d/c/B/d/) (c/B/A/B/) (c/B/A/c/) | %162
 (B/A/G/B/) (^A/F/B/c/) (d/B/d/^e/) | f z z2 z2 |!mf! D2 ([_B,_B]2 [G,G]2) | [=G,=G] z z2 z2 | %166
 D2 ([_B,_B]2 [G,G]2) | d>d d^e (g/f/e/f/) | d>d d^e (g/f/e/f/) | z6 | F2 ([Cc]2 [B,B]2) | %171
 [A,A] z z2 z2 | F2 ([Cc]2 [B,B]2) | [Ff]>[Ff] ([Ff][Gg]) [Ff]>[Ff] | %174
 ([Ff][Gg]) [Ff]>[Ff] ([Ff][Gg]) | ([Ff][Gg]) ([Ff][Gg]) ([Ff][Gg]) | %176
 ([Ff][Gg]) ([Ff][Gg]) ([Ff][Gg]) |{/Bcd} [Ee]>[Ee] [Ee][Dd] ([Ff]/[Ee]/[Dd]/[Ee]/) | %178
 [B,B]>[B,B] [B,B][^A,^A] [Cc]/[B,B]/[A,A]/[B,B]/ | %179
 [^^F,^^F][G,G] [F,F][G,G] ([Cc]/[B,B]/[A,A]/[G,G]/ | [F,F]/)C/D/^E/ F/G/A/B/ c/d/^e/f/ | %181
 [Gg]>[Gg] [Gg][Ff] [Gg][Ff] | [Gg][Dd] [Ff]/[Ee]/[Dd]/[Cc]/ [B,B][Cc] | %183
 [Ee][Dd] [Ee][Cc] ([Dd]/[Cc]/[B,B]/[Cc]/) | [Dd]>[Cc] [B,AB]2 z2 | %185
{/Bcd} [Ee]>[Ee] [Ee][Dd] ([Ff]/[Ee]/[Dd]/[Ee]/) | %186
 [B,B]>[B,B] [B,B][^A,^A] [Cc]/[B,B]/[A,A]/[B,B]/ | %187
 [^^F,^^F][G,G] [F,F][G,G] ([Cc]/[B,B]/[A,A]/[G,G]/ | [F,F]/)C/D/^E/ F/G/A/B/ c/d/^e/f/ | %189
 [Gg]>[Gg] [Gg][Ff] [Gg][Ff] | [Gg]B e/d/e/f/ [Gdg]f | [EGce]G c/^B/c/d/ [EFBe]d | %192
 [CEc]E A/G/A/B/ [CGc]B | [A,CFA][Cc] F/^E/F/G/ [Ac^e]G | [cf] z z2 z2 | %195
 [A,CEF]2 [A,CEF]2 [^A,CEG]2 | [G,B,EG] z z2 z2 | z6 | [C^EG]2 [CEG]2 [CEG]2 | [A,CF]4 [A,B,F]2 | %200
 [G,B,E]B e/d/e/f/ [Gdg]f | [EGce]G c/^B/c/d/ [EFBe]d | [CEc]E A/G/A/B/ [CGc]B | %203
 [A,CFA][Cc] F/^E/F/G/ [Ac^e]G | [cf] z z2 z2 | [A,CEF]2 [A,CEF]2 [^A,CEG]2 | [G,B,EG] z z2 z2 | %207
 z6 | [C^EG]2 [CEG]2 [CEG]2 | [A,CF]4 [A,B,F]2 | [Ee]>[Ee] [Ee] z z2 | [B,B]>[B,B] [B,B] z z2 | %212
 [G,G]>[G,G] [G,GA]/G/F/G/ A/G/F/G/ | A/G/F/G/ A/G/F/G/ A/B/c/d/ | [EGBe]2 [EG^Ae]2 [EGBe]2 | %215
 [EG^Ae]2 [EGBe]2 [EGAe]2 | [EGBe]2 [EGBe]2 [EGBe]2 | z6 |] %218
V:4
 x8 | x8 | x8 | x8 | x8 | x8 | x8 | x8 | x8 | x8 | x8 | x8 | x8 | x8 | x8 | x8 |: %16
[M:3/4] z3/2 [gb]/ [gb][gb] [gb][gb] | [eg]>[eg] [eg][eg] [eg][eg] | [Be][Be] [Be][Be] [c^e]2 | %19
 x6 | x6 | [be'][gb] [gb]2 g[gb] | [ab]4 [ab]2 | [gb]2 z4 | z3/2 [gb]/ [gb][gb] [gb][gb] | %25
 [eg]>[eg] [eg][eg] [eg][eg] | [Be][Be] [Be][Be] [c^e]2 | x6 | x6 | [be'][gb] [gb]2 g[gb] | %30
 [gb] z z [dg] [d^^f]2 | [dg] z z [dg] [d^^f]2 | [gb]2 [gb]2 [gb]2 | [ab]2 [ab]2 [gb]2 :| %34
 [db]>[db] [db] z b2 | b2 b4 | [gb]2 a2 [fa]2 | ge [ef][df] z2 | [db]>[db] [db] z b2 | b2 b4 | %40
 [gb]2 a2 [fa]2 | ge [ef][df] x2 | x6 | x6 | x6 | x6 | x6 | x6 | x6 | x6 | x6 | x6 | ^a4 b2- | %53
 b2 ^b4 | c'2 [f=d']2 [f^d']2 | a2 ^a2 b2 | z3/2 [gb]/ [gb][gb] [gb][gb] | %57
 [eg]>[eg] [eg][eg] [eg][eg] | [Be][Be] [Be][Be] [c^e]2 | x6 | x6 | [be'][gb] [gb]2 g[gb] | %62
 [ab]4 [ab]2 | [gb]2 z4 | z3/2 [gb]/ [gb][gb] [gb][gb] | [eg]>[eg] [eg][eg] [eg][eg] | %66
 [Be][Be] [Be][Be] [c^e]2 | x6 | x6 | [be'][gb] [gb]2 g[gb] | [gb] z z [dg] [d^^f]2 | %71
 [dg] z z [dg] [d^^f]2 | [gb]2 [gb]2 [gb]2 | [ab]2 [ab]2 [gb]2 ||[K:C] x6 | x6 | x6 | x6 | x6 | %79
 x6 | x6 | x6 | x!8va(! x5 | x6 | x6 | x6 | x6 | x6 | x6 | x6 | x!8va)! x5 | x6 | x6 | x6 | x6 | %95
 x6 | x6 | x6 | x6 | x!8va(! x5 | x6 | x6 | x6 | x6 | x6 | x!8va)! x5 | x6 | x6 | x6 | x6 | x6 | %111
 x6 | x6 | x!8va(! x5 | x6 | x6 | x6 | x6 | x6 | x6 | x6 | x!8va)! x5 | x6 | x6 | x6 | x6 | x6 | %127
 B4 ^c2 | ^d2 B2 ^c2 | x6 | x6 | x6 | x6 | x6 | x6 | x6 | x6 ||[K:E] z3/2 [gb]/ [gb][gb] [gb][gb] | %138
 [eg]>[eg] [eg][eg] [eg][eg] | [Be][Be] [Be][Be] [c^e]2 | x6 | x6 | [be'][gb] [gb]2 g[gb] | %143
 [ab]4 [ab]2 | [gb]2 z4 | z3/2 [gb]/ [gb][gb] [gb][gb] | [eg]>[eg] [eg][eg] [eg][eg] | %147
 [Be][Be] [Be][Be] [c^e]2 | x6 | x6 | [be'][gb] [gb]2 g[gb] | [gb] z z [dg] [d^^f]2 | %152
 [dg] z z [dg] [d^^f]2 | [gb]2 [gb]2 [gb]2 | [ab]2 [ab]2 [gb]2 | [db]>[db] [db] z b2 | b2 b4 | %157
 [gb]2 a2 [fa]2 | ge [ef][df] z2 | [db]>[db] [db] z b2 | b2 b4 | [gb]2 a2 [fa]2 | ge [ef][df] x2 | %163
 x6 | x6 | x6 | x6 | x6 | x6 | x6 | x6 | x6 | x6 | ^a4 b2- | b2 ^b4 | c'2 [f=d']2 [f^d']2 | %176
 a2 ^a2 b2 | z3/2 [gb]/ [gb][gb] [gb][gb] | [eg]>[eg] [eg][eg] [eg][eg] | %179
 [Be][Be] [Be][Be] [c^e]2 | x6 | x6 | [be'][gb] [gb]2 g[gb] | [ab]4 [ab]2 | [gb]2 z4 | %185
 z3/2 [gb]/ [gb][gb] [gb][gb] | [eg]>[eg] [eg][eg] [eg][eg] | [Be][Be] [Be][Be] [c^e]2 | x6 | x6 | %190
 x6 | x6 | x6 | x6 | x6 | [ef]2 [ef]2 [e^^f]2 | x6 | x6 | [^eg]2 [eg]2 [eg]2 | [fa]4 [db]2 | x6 | %201
 x6 | x6 | x6 | x6 | [ef]2 [ef]2 [e^^f]2 | x6 | x6 | [^eg]2 [eg]2 [eg]2 | [fa]4 [db]2 | %210
 [gb][gb] [gb][gb] [gb][gb] | [eg][eg] [eg][eg] [eg][eg] | [Be][Be] [Be][Be] [Be][Be] | %213
 [Be][Be] [Be][Be] [Be][eg] | [gb]2 [g^a]2 [gb]2 | [g^a]2 [gb]2 [ga]2 | x6 | x6 |] %218
V:5
 x8 | x8 | x8 | x8 | x8 | x8 | x8 | x8 | x8 | x8 | x8 | x8 | x8 | x8 | x8 | x8 |:[M:3/4] x6 | x6 | %18
 x6 | x6 | x6 | x6 | x6 | [GB]2 z4 | x6 | x6 | x6 | x6 | x6 | x6 | z z z [DG] z2 | z z z [DG] z2 | %32
 x6 | x6 :| z4 B2 | B2 B4 | [GB]2 A2 [FA]2 | G2 [^A,F][B,F] z2 | z4 B2 | B2 B4 | [GB]2 A2 [FA]2 | %41
 G2 [^A,F][B,F] x2 | x6 | x6 | x6 | x6 | =G z z ddd | d3/2 z/ z ddd | x6 | x6 | x6 | x6 | %52
 [^Ae]4 [Be]2- | [Be]2 [=ce]4 | [ce]2 =d2 [G^d]2 | [Ae]2 [^Ae]2 [Bd]2 | x6 | x6 | x6 | x6 | x6 | %61
 x6 | x6 | [GB]2 z4 | x6 | x6 | x6 | x6 | x6 | x6 | z z z [DG] z2 | z z z [DG] z2 | x6 | x6 || %74
[K:C] x6 | x6 | x6 | x6 | x6 | x6 | x6 | x6 | x6 | x6 | x6 |[K:bass] x6 | x3/2[K:treble] x9/2 | %87
 x6 | x6 | x6 | x6 | x6 | x6 | x6 | x6 | x6 | x6 | x6 | x6 | x6 | x6 | x6 |!8vb(! x3/2!8vb)! x9/2 | %103
 x6 | x6 | x6 | x6 | x6 | x6 | x6 | x6 | x6 | x6 | x6 | x6 | x6 |[K:bass] x6 | %117
 x3/2[K:treble] x9/2 | x6 | x6 | x6 | x6 | x6 | x6 | x6 | x6 | x6 | x6 | x6 | x6 | x6 | x6 | x6 | %133
 x6 | x6 | x6 | x6 ||[K:E] x6 | x6 | x6 | x6 | x6 | x6 | x6 | [GB]2 z4 | x6 | x6 | x6 | x6 | x6 | %150
 x6 | z z z [DG] z2 | z z z [DG] z2 | x6 | x6 | z4 B2 | B2 B4 | [GB]2 A2 [FA]2 | %158
 G2 [^A,F][B,F] z2 | z4 B2 | B2 B4 | [GB]2 A2 [FA]2 | G2 [^A,F][B,F] x2 | x6 | x6 | x6 | x6 | %167
 =G z z ddd | d3/2 z/ z ddd | x6 | x6 | x6 | x6 | [^Ae]4 [Be]2- | [Be]2 [=ce]4 | [ce]2 =d2 [G^d]2 | %176
 [Ae]2 [^Ae]2 [Bd]2 | x6 | x6 | x6 | x6 | x6 | x6 | x6 | [GB]2 z4 | x6 | x6 | x6 | x6 | x6 | x6 | %191
 x6 | x6 | x6 | x6 | x6 | x6 | x6 | x6 | x6 | x6 | x6 | x6 | x6 | x6 | x6 | x6 | x6 | x6 | x6 | %210
 x6 | x6 | x6 | x6 | x6 | x6 | x6 | x6 |] %218
V:6
 x8 | x8 | x8 | x8 | x8 | x8 | x8 | x8 | x8 | x8 |[K:treble] x4[K:bass] x4 | x8 | x8 | x8 | x8 | %15
 x8 |:[M:3/4] x6 | x6 | x6 | x6 | x6 | x6 | x6 | x6 | x6 | x6 | x6 | x6 | x6 | x6 | x6 | x6 | x6 | %33
 x6 :| x6 | x6 | x6 | x6 | x6 | x6 | x6 | x6 | x6 | x6 | x6 | x6 | x6 | x6 | x6 | x6 | x6 | x6 | %52
 x6 | x6 | x6 | x6 | x6 | x6 | x6 | x6 | x6 | x6 | x6 | x6 | x6 | x6 | x6 | x6 | x6 | x6 | x6 | %71
 x6 | x6 | x6 ||[K:C] x6 | x6 | x6 | x6 | x6 | x6 | x6 | x6 |[K:treble]!8vb(! x!8vb)! x5 | x6 | %84
 x6 | x6 | x6 | x6 | x6 | x6 | x6 |[K:bass] x6 | x6 | x6 | x6 | x6 | x6 | x6 | x6 | %99
[K:treble]!8vb(! x!8vb)! x5 | x6 | x6 | x2!8vb(! x4 | x6 | x3!8vb)! x3 |[K:bass] x6 | x6 | x6 | %108
 x6 | x6 | x6 | x6 | x6 |[K:treble]!8vb(! x!8vb)! x5 | x6 | x6 | x6 | x6 | x6 | x6 | x6 | %121
[K:bass] x6 | x6 |[K:treble] x6 | x6 |[K:bass] x6 | x6 | ^F,6- | F,6 | x6 | x6 | x6 | x6 | x6 | %134
 x6 | x6 | x6 ||[K:E] x6 | x6 | x6 | x6 | x6 | x6 | x6 | x6 | x6 | x6 | x6 | x6 | x6 | x6 | x6 | %152
 x6 | x6 | x6 | x6 | x6 | x6 | x6 | x6 | x6 | x6 | x6 | x6 | x6 | x6 | x6 | x6 | x6 | x6 | x6 | %171
 x6 | x6 | x6 | x6 | x6 | x6 | x6 | x6 | x6 | x6 | x6 | x6 | x6 | x6 | x6 | x6 | x6 | x6 | x6 | %190
 x6 | x6 | x6 | x6 | x6 | x6 | x2[K:treble] x4 | x6 |[K:bass] x6 | x6 | x6 | x6 | x6 | x6 | x6 | %205
 x6 | x2[K:treble] x4 | x6 |[K:bass] x6 | x6 | x6 | x6 | x6 | x6 | x6 | x6 | x6 | x6 |] %218

